X: 1
T: Sal's Got Mud Between Her Toes
R: reel
M: 4/4
L: 1/8
Z: Contributed 2017-11-26 01:20:55 by Terry Terry_cowan@hotmail.com
K: Dmaj
   DF |\
A2A2 FEDE | FAAB A2DF | F2A2 BAFD | FED2 E3E |\
F2A2 BAFD | F2AB A3A  | BABA FEDF | E2D2 D2 :|
|: AB |\
d2 d2 (3BdB AB | d2 d2 f4 | f3 a fede | f2 f2 e3 e |\
f2 a2 fedA | B2 d2 B4 | d2 B2 FE DF | E2 D2 D2 :|
|: A,B, |\
D2 D2 (3B,DB, A,B, | D2 D2 F3F | FEDF EDB,A, |1,3 DEDB, A,2 A,B, :|2,4 B,D D2 D2 :|

%%sep 1 1 500

